www/deliveries/17track.svg

<svg height="90" preserveAspectRatio="xMidYMid" viewBox="0 0 128 90" width="128" xmlns="http://www.w3.org/2000/svg"><g fill-rule="evenodd"><path d="m85.868 90h-22.589l31.6-67.5h-42.173v-22.5h52.706 22.588zm-63.28-67.5h-22.588l10.516-22.5h15.932 18.728v90h-22.588z" fill="#003a9b"/><path d="m99.439 90h21.031v-44.925z" fill="#ff8c00"/></g></svg>

<?xml version="1.0" encoding="UTF-8" standalone="no"?>
<svg
   xmlns:dc="http://purl.org/dc/elements/1.1/"
   xmlns:cc="http://creativecommons.org/ns#"
   xmlns:rdf="http://www.w3.org/1999/02/22-rdf-syntax-ns#"
   xmlns:svg="http://www.w3.org/2000/svg"
   xmlns="http://www.w3.org/2000/svg"
   xmlns:sodipodi="http://sodipodi.sourceforge.net/DTD/sodipodi-0.dtd"
   xmlns:inkscape="http://www.inkscape.org/namespaces/inkscape"
   height="1000"
   preserveAspectRatio="xMidYMid"
   viewBox="0 0 1000 1000"
   width="1000"
   version="1.1"
   id="svg8"
   sodipodi:docname="17track.svg"
   inkscape:version="0.92.4 (unknown)">
  <metadata
     id="metadata14">
    <rdf:RDF>
      <cc:Work
         rdf:about="">
        <dc:format>image/svg+xml</dc:format>
        <dc:type
           rdf:resource="http://purl.org/dc/dcmitype/StillImage" />
        <dc:title></dc:title>
      </cc:Work>
    </rdf:RDF>
  </metadata>
  <defs
     id="defs12" />
  <sodipodi:namedview
     pagecolor="#ffffff"
     bordercolor="#666666"
     borderopacity="1"
     objecttolerance="10"
     gridtolerance="10"
     guidetolerance="10"
     inkscape:pageopacity="0"
     inkscape:pageshadow="2"
     inkscape:window-width="1920"
     inkscape:window-height="1016"
     id="namedview10"
     showgrid="false"
     inkscape:zoom="0.64453125"
     inkscape:cx="273.71183"
     inkscape:cy="510.60116"
     inkscape:window-x="0"
     inkscape:window-y="27"
     inkscape:window-maximized="1"
     inkscape:current-layer="svg8" />
  <g
     id="g6"
     style="fill-rule:evenodd"
     transform="matrix(5.46875,0,0,5.46875,150,261.8125)">
    <path
       d="M 85.868,90 H 63.279 l 31.6,-67.5 H 52.706 V 0 H 105.412 128 Z M 22.588,22.5 H 0 L 10.516,0 H 26.448 45.176 V 90 H 22.588 Z"
       id="path2"
       inkscape:connector-curvature="0"
       style="fill:#003a9b" />
    <path
       d="M 99.439,90 H 120.47 V 45.075 Z"
       id="path4"
       inkscape:connector-curvature="0"
       style="fill:#ff8c00" />
  </g>
</svg>
